X:1
T:Hoy Memo
N:rhythm=CurCurna
M:10/16
K:Am %Transposed from BM
P:saz
e3|:e2ded edc3|d2(ee)d cBcBA|A2ABB G2 cdA|
d2d eded c3|d2(e e)d cB cBA|A3 e2 e2e3:|
P:vocal
e3|:e3 ed ed c3|d2 e d2 cB cBA|A2 (A B2) G2 {G2} d3|
d2 d ed ed c3|d2 e d2 cB cBA|A3 e2 e2e3:|
